static/img/flutter-icon-32.svg

<?xml version="1.0" encoding="UTF-8"?>
<svg xmlns="http://www.w3.org/2000/svg" xmlns:xlink="http://www.w3.org/1999/xlink" width="32px" height="32px" viewBox="0 0 32 32" version="1.1">
<defs>
<linearGradient id="linear0" gradientUnits="userSpaceOnUse" x1="0.0395171" y1="0.26993" x2="0.758971" y2="0.529193" gradientTransform="matrix(4.5,0,0,4.503906,15.308594,23.714844)">
<stop offset="0" style="stop-color:rgb(0%,0%,0%);stop-opacity:0.8;"/>
<stop offset="1" style="stop-color:rgb(0%,0%,0%);stop-opacity:0;"/>
</linearGradient>
</defs>
<g id="surface1">
<path style=" stroke:none;fill-rule:nonzero;fill:rgb(27.843137%,77.254902%,98.431373%);fill-opacity:1;" d="M 18.996094 0 L 3.078125 15.914062 L 8.003906 20.84375 L 28.847656 0 Z M 18.996094 0 "/>
<path style=" stroke:none;fill-rule:nonzero;fill:rgb(27.843137%,77.254902%,98.431373%);fill-opacity:1;" d="M 18.882812 14.675781 L 10.363281 23.199219 L 15.308594 28.21875 L 20.222656 23.300781 L 28.847656 14.675781 Z M 18.882812 14.675781 "/>
<path style=" stroke:none;fill-rule:nonzero;fill:rgb(0%,33.72549%,61.960784%);fill-opacity:1;" d="M 15.308594 28.21875 L 19.050781 31.960938 L 28.847656 31.960938 L 20.222656 23.300781 Z M 15.308594 28.21875 "/>
<path style=" stroke:none;fill-rule:nonzero;fill:rgb(0%,70.980392%,97.254902%);fill-opacity:1;" d="M 10.304688 23.253906 L 15.234375 18.328125 L 20.222656 23.300781 L 15.308594 28.21875 Z M 10.304688 23.253906 "/>
<path style=" stroke:none;fill-rule:nonzero;fill:url(#linear0);" d="M 15.308594 28.21875 L 19.402344 26.859375 L 19.808594 23.714844 Z M 15.308594 28.21875 "/>
</g>
</svg>

<svg xmlns="http://www.w3.org/2000/svg" width="32" height="32"><defs><linearGradient id="a" x1=".04" x2=".759" y1=".27" y2=".529" gradientTransform="matrix(4.5 0 0 4.5039 15.309 23.715)" gradientUnits="userSpaceOnUse"><stop offset="0" style="stop-color:#000;stop-opacity:.8"/><stop offset="1" style="stop-color:#000;stop-opacity:0"/></linearGradient></defs><path d="M18.996 0 3.078 15.914l4.926 4.93L28.848 0Zm-.113 14.676-8.52 8.523 4.946 5.02 4.914-4.918 8.625-8.625Zm0 0" style="stroke:none;fill-rule:nonzero;fill:#47c5fb;fill-opacity:1"/><path d="m15.309 28.219 3.742 3.742h9.797l-8.625-8.66Zm0 0" style="stroke:none;fill-rule:nonzero;fill:#00569e;fill-opacity:1"/><path d="m10.305 23.254 4.93-4.926 4.988 4.973-4.914 4.918Zm0 0" style="stroke:none;fill-rule:nonzero;fill:#00b5f8;fill-opacity:1"/><path d="m15.309 28.219 4.093-1.36.407-3.144Zm0 0" style="stroke:none;fill-rule:nonzero;fill:url(#a)"/></svg>
